countertop.svg

<svg fill="currentColor" viewBox="0 0 24 24"><path d="M18 10V7c0-1.66-1.34-3-3-3s-3 1.34-3 3h2c0-.55.45-1 1-1s1 .45 1 1v3H8c1.1 0 2-.9 2-2V4H4v4c0 1.1.9 2 2 2H2v2h2v8h16v-8h2v-2zm-5 8h-2v-6h2z"/></svg>

<svg  viewBox="0 0 24 24" fill="currentColor"><path  d="M18 10V7C18 5.34 16.66 4 15 4S12 5.34 12 7H14C14 6.45 14.45 6 15 6S16 6.45 16 7V10H8C9.1 10 10 9.1 10 8V4H4V8C4 9.1 4.9 10 6 10H2V12H4V20H20V12H22V10H18M13 18H11V12H13V18Z"/></svg>
